src/assets/images/icon/home-outline/home.svg

<svg width="24" height="24" viewBox="0 0 24 24" fill="none" xmlns="http://www.w3.org/2000/svg">
<path d="M4 10.161V20.3016C4 20.4869 4.07662 20.6645 4.21301 20.7955C4.3494 20.9265 4.53439 21 4.72727 21H9.09091V15.0635C9.09091 14.7857 9.20584 14.5192 9.41043 14.3228C9.61501 14.1263 9.89249 14.0159 10.1818 14.0159H13.8182C14.1075 14.0159 14.385 14.1263 14.5896 14.3228C14.7942 14.5192 14.9091 14.7857 14.9091 15.0635V21H19.2727C19.4656 21 19.6506 20.9265 19.787 20.7955C19.9234 20.6645 20 20.4869 20 20.3016V10.161" stroke="#0F0F0F" stroke-width="1.125" stroke-linecap="round" stroke-linejoin="round"/>
<path d="M22 12L12.4862 3.17234C12.2629 2.94385 11.7411 2.94126 11.5138 3.17234L2 12M18.4286 8.66799V3.69161H16.2857V6.67744" stroke="#0F0F0F" stroke-width="1.125" stroke-linecap="round" stroke-linejoin="round"/>
</svg>

<svg xmlns="http://www.w3.org/2000/svg" width="24" height="24" fill="none"><path stroke="#0F0F0F" stroke-linecap="round" stroke-linejoin="round" stroke-width="1.125" d="M4 10.161v10.14c0 .186.077.364.213.495a.743.743 0 0 0 .514.204h4.364v-5.937c0-.277.115-.544.32-.74.204-.197.481-.307.77-.307h3.637c.29 0 .567.11.772.307.204.196.32.463.32.74V21h4.363a.743.743 0 0 0 .514-.204.685.685 0 0 0 .213-.494V10.16"/><path stroke="#0F0F0F" stroke-linecap="round" stroke-linejoin="round" stroke-width="1.125" d="m22 12-9.514-8.828c-.223-.228-.745-.23-.972 0L2 12m16.429-3.332V3.692h-2.143v2.985"/></svg>
